assets/sonr-icons/currency-dollar.svg

<svg xmlns="http://www.w3.org/2000/svg" width="24" height="24" fill="none" viewBox="0 0 24 24"><path fill="#000" fill-rule="evenodd" d="M12.96 2.39994C12.96 1.86975 12.5302 1.43994 12 1.43994C11.4698 1.43994 11.04 1.86975 11.04 2.39994V3.35994H10.08C7.42884 3.35994 5.28003 5.50875 5.28003 8.15994C5.28003 10.8111 7.42884 12.9599 10.08 12.9599H11.04V18.7199H10.08C8.48922 18.7199 7.20003 17.4307 7.20003 15.8399C7.20003 15.3097 6.77022 14.8799 6.24003 14.8799C5.70984 14.8799 5.28003 15.3097 5.28003 15.8399C5.28003 18.4911 7.42884 20.6399 10.08 20.6399H11.04V21.5999C11.04 22.1301 11.4698 22.5599 12 22.5599C12.5302 22.5599 12.96 22.1301 12.96 21.5999V20.6399H13.92C16.5712 20.6399 18.72 18.4911 18.72 15.8399C18.72 13.1887 16.5712 11.0399 13.92 11.0399H12.96V5.27994H13.92C15.5108 5.27994 16.8 6.56913 16.8 8.15994C16.8 8.69013 17.2298 9.11994 17.76 9.11994C18.2902 9.11994 18.72 8.69013 18.72 8.15994C18.72 5.50875 16.5712 3.35994 13.92 3.35994H12.96V2.39994ZM7.20003 8.15994C7.20003 6.56913 8.48922 5.27994 10.08 5.27994H11.04V11.0399H10.08C8.48922 11.0399 7.20003 9.75075 7.20003 8.15994ZM16.8 15.8399C16.8 17.4307 15.5108 18.7199 13.92 18.7199H12.96V12.9599H13.92C15.5108 12.9599 16.8 14.2491 16.8 15.8399Z" clip-rule="evenodd"/></svg>

<svg xmlns="http://www.w3.org/2000/svg" width="24" height="24" fill="none"><path fill="currentColor" fill-rule="evenodd" d="M12.96 2.4a.96.96 0 1 0-1.92 0v.96h-.96a4.8 4.8 0 1 0 0 9.6h.96v5.76h-.96a2.88 2.88 0 0 1-2.88-2.88.96.96 0 1 0-1.92 0 4.8 4.8 0 0 0 4.8 4.8h.96v.96a.96.96 0 1 0 1.92 0v-.96h.96a4.8 4.8 0 1 0 0-9.6h-.96V5.28h.96a2.88 2.88 0 0 1 2.88 2.88.96.96 0 1 0 1.92 0 4.8 4.8 0 0 0-4.8-4.8h-.96zM7.2 8.16a2.88 2.88 0 0 1 2.88-2.88h.96v5.76h-.96A2.88 2.88 0 0 1 7.2 8.16m9.6 7.68a2.88 2.88 0 0 1-2.88 2.88h-.96v-5.76h.96a2.88 2.88 0 0 1 2.88 2.88" clip-rule="evenodd"/></svg>
